public/avatar/body/238.svg

<svg xmlns:xlink="http://www.w3.org/1999/xlink" height="82" width="84.85" xmlns="http://www.w3.org/2000/svg"><g transform="translate(37.4 42.25)"><use height="38" transform="translate(-11.95 -17.45)" width="32.05" xlink:href="#a"/><use height="38.95" transform="translate(-12.45 -17.95)" width="33.05" xlink:href="#b"/><use height="9.9" transform="translate(-17.35 -14.95)" width="9.95" xlink:href="#c"/><use height="9.9" transform="matrix(-1 0 0 1 25.45 -15.15)" width="9.95" xlink:href="#c"/><use height=".1" transform="translate(20 1.3)" width=".7" xlink:href="#d"/><use height="24.2" transform="translate(3.8 1.4)" width="20.4" xlink:href="#e"/><use height="24.2" transform="matrix(-1 0 0 1 3.8 1.4)" width="20.4" xlink:href="#e"/></g><defs><use height="38" width="32.05" xlink:href="#f" id="a"/><use height="38.95" width="33.05" xlink:href="#g" id="b"/><use height="9.9" width="9.95" xlink:href="#h" id="c"/><use height="24.2" width="20.4" xlink:href="#i" id="e"/><path d="M27.35 7.4q2.15 4.15 3.55 8.75 1.45 4.7 1.15 9.5-.35 4.95-4.2 8.1-3.8 3.2-8.75 4.05l-2.6.2q-3.6 0-7.05-1.15-4.65-1.6-7.1-5.5Q-.2 27.4.05 23q.2-4.4 2-9.3Q3.85 8.75 7 5.05 10.1 1.3 14.7.1l1.8-.1q1.9.05 3.7.8 4.75 2.05 7.15 6.6" fill="#52a037" fill-rule="evenodd" transform="translate(-.05)" id="f"/><path d="M27.35 7.4Q24.95 2.85 20.2.8 17.55-.3 14.7.1 10.1 1.3 7 5.05q-3.15 3.7-4.95 8.65-1.8 4.9-2 9.3-.25 4.4 2.3 8.35 2.45 3.9 7.1 5.5 4.65 1.55 9.65.95 4.95-.85 8.75-4.05 3.85-3.15 4.2-8.1.3-4.8-1.15-9.5-1.4-4.6-3.55-8.75Z" fill="none" stroke="#000" stroke-linecap="round" stroke-linejoin="round" transform="translate(.45 .5)" id="g"/><path d="m20.6 1.35.1.05H20l.2-.1.4.05" fill="#153060" fill-rule="evenodd" transform="translate(-20 -1.3)" id="d"/><g id="h" fill-rule="evenodd"><path d="m2.25-3.85.15.35v.05Q2.4-2.3 1.55-1l2 1.45 1.1.7.3.7q0 1.1-1.35 2.85-.3.4-.65.1l-.4-.2-3.3-2.15-.95.5q-1.8 1.05-2.35.8-.6-.35-.85-1.5-.3-1.3.2-2.45 1.05-2.35 3.5-4.2 1.85-1.35 3.45.55" fill="#363636" transform="translate(5 4.95)"/><path d="M-.75-3.5q1.15-.95 2.25.4L.65-.75 4 1.9l-.95 1.85-3.9-2.3q-2.3 1.6-2.75 1.35-1.1-.6-.05-2.85.75-1.75 2.9-3.45" fill="#33a061" transform="translate(5 4.95)"/><path d="M-2.6-1.05Q-1.35-2.9-.05-3.1q.3 0 .35.2.5.95-.5 2.7-1 1.75-2.85 1.8l-.35-.3q-.25-.95.8-2.35" fill="#363636" transform="translate(5 4.95)"/><path d="M-.9-.45Q-1.8.75-2.65.75q.1-.8.9-1.8L-.3-2.2q.3.6-.6 1.75" fill="#33453b" transform="translate(5 4.95)"/></g><g id="i" fill-rule="evenodd"><path d="M-1.2-7q-5.3 2-9 5.65V-2.9q3.4-3.3 8.8-5.3l2.2-.75-2 1.95m5.8-4.45 1.25-.6.15-.05h.7q1.4.9 1.45 3.85l-.3.5-.35.15-.1.05q-.65 1.4-.65 4.75l.65.65q.2.75-.3 1.7l-.2.2-.05.05q.25 2.1.9 3.7l.1-.05.4.1Q9.7 4.8 10.2 6.45l-.1.45-4.3 3.25Q.35 13-5.75 11.7l-.25-.15-.6-1-3.6.1v-1l3.3-.1.1.3 1.05-.2.4 1.1Q.4 11.9 5.3 9.35l.2-.1Q8.7 8 9.15 6.5l-.1-.15Q8.75 5.45 8 4.8l-.1-.15-.2.3-.55.5-.35-.95.25-.3Q6.25 2.5 6 .25L-.65 2.8l-.7.25-1 .3-1.8.55-1.3.35-1.15.25-.8.15-.45.1L-9.4 5l-.4.05h-.4V4.1h.15l3.65-.55 1.15-.25 3-.8 1.1-.4Q2.25.95 5.9-.8l.4-.25.05-.8-.5.25Q2.5-.2-.75.9l-1.3.4-2.9.85-1.15.3-3.85.8h-.25v-1h.25l4.2-.9L-4.6 1l1.2-.3 1.65-.55h.1l1.4-.45L5.8-2.65q0-2.8.4-4.35l.4-.2-.25-.35-.45-.5 1.2-.5.05-.1v-.2q.3-1.5-.9-2.2l-1.6.75-.05-.55v-.6" fill="#153060" transform="translate(10.2 12.1)"/><path d="M7.15-8.85v.2l-.05.1-1.2.5-4.8 3.4Q-.8-2.6-1.65.15h-.1L-3.4.7q.55-1.75 1.45-3.3 3-5.15 9-7.45l.1 1.2M-4.15 3.9l1.8-.55-.1 1.75.05.85.2 2.7h.05q6.75.1 9.85-3.7l.2-.3.1.15q.75.65 1.05 1.55l.1.15Q8.7 8 5.5 9.25l-.2.1q-4.1 1.6-9.5.7-.4-3.3.05-6.15" fill="#80bad4" transform="translate(10.2 12.1)"/><path d="m4.65-10.3 1.6-.75q1.2.7.9 2.2l-.1-1.2q-6 2.3-9 7.45-.9 1.55-1.45 3.3l-1.2.3.05-.15Q-1.75-7 4.65-10.3M-5.45 4.25l1.3-.35q-.45 2.85-.05 6.15 5.4.9 9.5-.7-4.9 2.55-10.65 1.4l-.4-1.1-.1-2.5.4-2.9m12.6 1.2.55-.5q-3.1 3.8-9.85 3.7h-.05l-.2-2.7.25 2.7q5.9-.15 9.3-3.2" fill="#ccecf4" transform="translate(10.2 12.1)"/><path d="m-1.2-7 2-1.95q1.7-1.45 3.8-2.5v.6l.05.55Q-1.75-7-4.55.85L-4.6 1l-1.15.35L-4.7-1.5Q-3.3-4.65-1.2-7m7.1-1.05.45.5.25.35-.4.2Q1.7-4.7-.25-.3l-1.4.45Q-.8-2.6 1.1-4.65l4.8-3.4M-6.6 4.5l1.15-.25-.4 2.9.1 2.5-1.05.2-.1-.3q-.25-1.5.05-3.65l.25-1.4m4.25-1.15 1-.3-.3 2.9.15 1.75q5.4-.2 8.3-3.2l.35.95q-3.4 3.05-9.3 3.2l-.25-2.7-.05-.85.1-1.75" fill="#4d63ab" transform="translate(10.2 12.1)"/><path d="M6.2-7q-.4 1.55-.4 4.35L-.25-.3Q1.7-4.7 6.2-7M-1.35 3.05l.7-.25L6 .25Q6.25 2.5 7.05 4.2l-.25.3q-2.9 3-8.3 3.2l-.15-1.75.3-2.9" fill="#1f7da6" transform="translate(10.2 12.1)"/><path d="M-10.2 3.25h.25l3.85-.8 1.15-.3 2.9-.85 1.3-.4Q2.5-.2 5.85-1.6l.5-.25-.05.8-.4.25Q2.25.95-1.15 2.1l-1.1.4-3 .8-1.15.25-3.65.55h-.15v-.85" fill="#fff" transform="translate(10.2 12.1)"/><path d="M-10.2.8q.85-1.55 3.85-2.1l1.65-.2-1.05 2.85-4.2.9h-.25V.8m0 4.25h.4l-.4.35v-.35m.8-.05 1.55-.25-.6 2.2Q-8.9 5.7-9.4 5m2-.35.8-.15-.25 1.4-.55-1.25" fill="#12579e" transform="translate(10.2 12.1)"/><path d="M-10.2-1.35Q-6.5-5-1.2-7q-2.1 2.35-3.5 5.5l-1.65.2q-3 .55-3.85 2.1v-2.15m.4 6.4.4-.05q.5.7.95 1.95l.6-2.2.45-.1.55 1.25q-.3 2.15-.05 3.65l-3.3.1V5.4l.4-.35" fill="#3580af" transform="translate(10.2 12.1)"/></g></defs></svg>

<?xml version="1.0" encoding="UTF-8" standalone="no"?>
<svg xmlns:xlink="http://www.w3.org/1999/xlink" height="82.0px" width="84.85px" xmlns="http://www.w3.org/2000/svg">
  <g transform="matrix(1.0, 0.0, 0.0, 1.0, 37.4, 42.25)">
    <use height="38.0" transform="matrix(1.0, 0.0, 0.0, 1.0, -11.95, -17.45)" width="32.05" xlink:href="#sprite0"/>
    <use height="38.95" transform="matrix(1.0, 0.0, 0.0, 1.0, -12.45, -17.95)" width="33.05" xlink:href="#sprite1"/>
    <use height="9.9" transform="matrix(1.0, 0.0, 0.0, 1.0, -17.35, -14.95)" width="9.95" xlink:href="#sprite2"/>
    <use height="9.9" transform="matrix(-1.0, 0.0, 0.0, 1.0, 25.45, -15.15)" width="9.95" xlink:href="#sprite2"/>
    <use height="0.1" transform="matrix(1.0, 0.0, 0.0, 1.0, 20.0, 1.3)" width="0.7" xlink:href="#shape3"/>
    <use height="24.2" transform="matrix(1.0, 0.0, 0.0, 1.0, 3.8, 1.4)" width="20.4" xlink:href="#sprite3"/>
    <use height="24.2" transform="matrix(-1.0, 0.0, 0.0, 1.0, 3.8, 1.4)" width="20.4" xlink:href="#sprite3"/>
  </g>
  <defs>
    <g id="sprite0" transform="matrix(1.0, 0.0, 0.0, 1.0, -0.05, 0.0)">
      <use height="38.0" transform="matrix(1.0, 0.0, 0.0, 1.0, 0.05, 0.0)" width="32.05" xlink:href="#shape0"/>
    </g>
    <g id="shape0" transform="matrix(1.0, 0.0, 0.0, 1.0, -0.05, 0.0)">
      <path d="M27.35 7.4 Q29.5 11.55 30.9 16.15 32.35 20.85 32.05 25.65 31.7 30.6 27.85 33.75 24.05 36.95 19.1 37.8 L16.5 38.0 Q12.9 38.0 9.45 36.85 4.8 35.25 2.35 31.35 -0.2 27.4 0.05 23.0 0.25 18.6 2.05 13.7 3.85 8.75 7.0 5.05 10.1 1.3 14.7 0.1 L16.5 0.0 Q18.4 0.05 20.2 0.8 24.95 2.85 27.35 7.4" fill="#52a037" fill-rule="evenodd" stroke="none"/>
    </g>
    <g id="sprite1" transform="matrix(1.0, 0.0, 0.0, 1.0, 0.45, 0.5)">
      <use height="38.95" transform="matrix(1.0, 0.0, 0.0, 1.0, -0.45, -0.5)" width="33.05" xlink:href="#shape1"/>
    </g>
    <g id="shape1" transform="matrix(1.0, 0.0, 0.0, 1.0, 0.45, 0.5)">
      <path d="M27.35 7.4 Q24.95 2.85 20.2 0.8 17.55 -0.3 14.7 0.1 10.1 1.3 7.0 5.05 3.85 8.75 2.05 13.7 0.25 18.6 0.05 23.0 -0.2 27.4 2.35 31.35 4.8 35.25 9.45 36.85 14.1 38.4 19.1 37.8 24.05 36.95 27.85 33.75 31.7 30.6 32.05 25.65 32.35 20.85 30.9 16.15 29.5 11.55 27.35 7.4 Z" fill="none" stroke="#000000" stroke-linecap="round" stroke-linejoin="round" stroke-width="1.0"/>
    </g>
    <g id="sprite2" transform="matrix(1.0, 0.0, 0.0, 1.0, 5.0, 4.95)">
      <use height="9.9" transform="matrix(1.0, 0.0, 0.0, 1.0, -5.0, -4.95)" width="9.95" xlink:href="#shape2"/>
    </g>
    <g id="shape2" transform="matrix(1.0, 0.0, 0.0, 1.0, 5.0, 4.95)">
      <path d="M2.25 -3.85 L2.4 -3.5 2.4 -3.45 Q2.4 -2.3 1.55 -1.0 L3.55 0.45 4.65 1.15 4.95 1.85 Q4.95 2.95 3.6 4.7 3.3 5.1 2.95 4.8 L2.55 4.6 -0.75 2.45 -1.7 2.95 Q-3.5 4.0 -4.05 3.75 -4.65 3.4 -4.9 2.25 -5.2 0.95 -4.7 -0.2 -3.65 -2.55 -1.2 -4.4 0.65 -5.75 2.25 -3.85" fill="#363636" fill-rule="evenodd" stroke="none"/>
      <path d="M-0.75 -3.5 Q0.4 -4.45 1.5 -3.1 L0.65 -0.75 4.0 1.9 3.05 3.75 -0.85 1.45 Q-3.15 3.05 -3.6 2.8 -4.7 2.2 -3.65 -0.05 -2.9 -1.8 -0.75 -3.5" fill="#33a061" fill-rule="evenodd" stroke="none"/>
      <path d="M-2.6 -1.05 Q-1.35 -2.9 -0.05 -3.1 0.25 -3.1 0.3 -2.9 0.8 -1.95 -0.2 -0.2 -1.2 1.55 -3.05 1.6 L-3.4 1.3 Q-3.65 0.35 -2.6 -1.05" fill="#363636" fill-rule="evenodd" stroke="none"/>
      <path d="M-0.9 -0.45 Q-1.8 0.75 -2.65 0.75 -2.55 -0.05 -1.75 -1.05 L-0.3 -2.2 Q0.0 -1.6 -0.9 -0.45" fill="#33453b" fill-rule="evenodd" stroke="none"/>
    </g>
    <g id="shape3" transform="matrix(1.0, 0.0, 0.0, 1.0, -20.0, -1.3)">
      <path d="M20.6 1.35 L20.7 1.4 20.0 1.4 20.2 1.3 20.6 1.35" fill="#153060" fill-rule="evenodd" stroke="none"/>
    </g>
    <g id="sprite3" transform="matrix(1.0, 0.0, 0.0, 1.0, 10.2, 12.1)">
      <use height="24.2" transform="matrix(1.0, 0.0, 0.0, 1.0, -10.2, -12.1)" width="20.4" xlink:href="#shape4"/>
    </g>
    <g id="shape4" transform="matrix(1.0, 0.0, 0.0, 1.0, 10.2, 12.1)">
      <path d="M-1.2 -7.0 Q-6.5 -5.0 -10.2 -1.35 L-10.2 -2.9 Q-6.8 -6.2 -1.4 -8.2 L0.8 -8.95 -1.2 -7.0 M4.6 -11.45 L5.85 -12.05 6.0 -12.1 6.7 -12.1 Q8.1 -11.2 8.15 -8.25 L7.85 -7.75 7.5 -7.6 7.4 -7.55 Q6.75 -6.15 6.75 -2.8 L7.4 -2.15 Q7.6 -1.4 7.1 -0.45 L6.9 -0.25 6.85 -0.2 Q7.1 1.9 7.75 3.5 L7.85 3.45 8.25 3.55 Q9.7 4.8 10.2 6.45 L10.1 6.9 5.8 10.15 Q0.35 13.0 -5.75 11.7 L-6.0 11.55 -6.6 10.55 -10.2 10.65 -10.2 9.65 -6.9 9.55 -6.8 9.85 -5.75 9.65 -5.35 10.75 Q0.4 11.9 5.3 9.35 L5.5 9.25 Q8.7 8.0 9.15 6.5 L9.05 6.35 Q8.75 5.45 8.0 4.8 L7.9 4.65 7.7 4.95 7.15 5.45 6.8 4.5 7.05 4.2 Q6.25 2.5 6.0 0.25 L-0.65 2.8 -1.35 3.05 -2.35 3.35 -4.15 3.9 -5.45 4.25 -6.6 4.5 -7.4 4.65 -7.85 4.75 -9.4 5.0 -9.8 5.05 -10.1 5.05 -10.2 5.05 -10.2 4.1 -10.05 4.1 -6.4 3.55 -5.25 3.3 -2.25 2.5 -1.15 2.1 Q2.25 0.95 5.9 -0.8 L6.3 -1.05 6.35 -1.85 5.85 -1.6 Q2.5 -0.2 -0.75 0.9 L-2.05 1.3 -4.95 2.15 -6.1 2.45 -9.95 3.25 -10.2 3.25 -10.2 2.25 -9.95 2.25 -5.75 1.35 -4.6 1.0 -3.4 0.7 -1.75 0.15 -1.65 0.15 -0.25 -0.3 5.8 -2.65 Q5.8 -5.45 6.2 -7.0 L6.6 -7.2 6.35 -7.55 5.9 -8.05 7.1 -8.55 7.15 -8.65 7.15 -8.85 Q7.45 -10.35 6.25 -11.05 L4.65 -10.3 4.6 -10.85 4.6 -11.05 4.6 -11.45" fill="#153060" fill-rule="evenodd" stroke="none"/>
      <path d="M7.15 -8.85 L7.15 -8.65 7.1 -8.55 5.9 -8.05 1.1 -4.65 Q-0.8 -2.6 -1.65 0.15 L-1.75 0.15 -3.4 0.7 Q-2.85 -1.05 -1.95 -2.6 1.05 -7.75 7.05 -10.05 L7.15 -8.85 M-4.15 3.9 L-2.35 3.35 -2.45 5.1 -2.4 5.95 -2.2 8.65 -2.15 8.65 Q4.6 8.75 7.7 4.95 L7.9 4.65 8.0 4.8 Q8.75 5.45 9.05 6.35 L9.15 6.5 Q8.7 8.0 5.5 9.25 L5.3 9.35 Q1.2 10.95 -4.2 10.05 -4.6 6.75 -4.15 3.9" fill="#80bad4" fill-rule="evenodd" stroke="none"/>
      <path d="M4.65 -10.3 L6.25 -11.05 Q7.45 -10.35 7.15 -8.85 L7.05 -10.05 Q1.05 -7.75 -1.95 -2.6 -2.85 -1.05 -3.4 0.7 L-4.6 1.0 -4.55 0.85 Q-1.75 -7.0 4.65 -10.3 M-5.45 4.25 L-4.15 3.9 Q-4.6 6.75 -4.2 10.05 1.2 10.95 5.3 9.35 0.4 11.9 -5.35 10.75 L-5.75 9.65 -5.85 7.15 -5.45 4.25 M7.15 5.45 L7.7 4.95 Q4.6 8.75 -2.15 8.65 L-2.2 8.65 -2.4 5.95 -2.15 8.65 Q3.75 8.5 7.15 5.45" fill="#ccecf4" fill-rule="evenodd" stroke="none"/>
      <path d="M-1.2 -7.0 L0.8 -8.95 Q2.5 -10.4 4.6 -11.45 L4.6 -11.05 4.6 -10.85 4.65 -10.3 Q-1.75 -7.0 -4.55 0.85 L-4.6 1.0 -5.75 1.35 -4.7 -1.5 Q-3.3 -4.65 -1.2 -7.0 M5.9 -8.05 L6.35 -7.55 6.6 -7.2 6.2 -7.0 Q1.7 -4.7 -0.25 -0.3 L-1.65 0.15 Q-0.8 -2.6 1.1 -4.65 L5.9 -8.05 M-6.6 4.5 L-5.45 4.25 -5.85 7.15 -5.75 9.65 -6.8 9.85 -6.9 9.55 Q-7.15 8.05 -6.85 5.9 L-6.6 4.5 M-2.35 3.35 L-1.35 3.05 -1.65 5.95 -1.5 7.7 Q3.9 7.5 6.8 4.5 L7.15 5.45 Q3.75 8.5 -2.15 8.65 L-2.4 5.95 -2.45 5.1 -2.35 3.35" fill="#4d63ab" fill-rule="evenodd" stroke="none"/>
      <path d="M6.2 -7.0 Q5.8 -5.45 5.8 -2.65 L-0.25 -0.3 Q1.7 -4.7 6.2 -7.0 M-1.35 3.05 L-0.65 2.8 6.0 0.25 Q6.25 2.5 7.05 4.2 L6.8 4.5 Q3.9 7.5 -1.5 7.7 L-1.65 5.95 -1.35 3.05" fill="#1f7da6" fill-rule="evenodd" stroke="none"/>
      <path d="M-10.2 3.25 L-9.95 3.25 -6.1 2.45 -4.95 2.15 -2.05 1.3 -0.75 0.9 Q2.5 -0.2 5.85 -1.6 L6.35 -1.85 6.3 -1.05 5.9 -0.8 Q2.25 0.95 -1.15 2.1 L-2.25 2.5 -5.25 3.3 -6.4 3.55 -10.05 4.1 -10.2 4.1 -10.2 3.25" fill="#ffffff" fill-rule="evenodd" stroke="none"/>
      <path d="M-10.2 0.8 Q-9.35 -0.75 -6.35 -1.3 L-4.7 -1.5 -5.75 1.35 -9.95 2.25 -10.2 2.25 -10.2 0.8 M-10.2 5.05 L-10.1 5.05 -9.8 5.05 -10.2 5.4 -10.2 5.05 M-9.4 5.0 L-7.85 4.75 -8.45 6.95 Q-8.9 5.7 -9.4 5.0 M-7.4 4.65 L-6.6 4.5 -6.85 5.9 -7.4 4.65" fill="#12579e" fill-rule="evenodd" stroke="none"/>
      <path d="M-10.2 -1.35 Q-6.5 -5.0 -1.2 -7.0 -3.3 -4.65 -4.7 -1.5 L-6.35 -1.3 Q-9.35 -0.75 -10.2 0.8 L-10.2 -1.35 M-9.8 5.05 L-9.4 5.0 Q-8.9 5.7 -8.45 6.95 L-7.85 4.75 -7.4 4.65 -6.85 5.9 Q-7.15 8.05 -6.9 9.55 L-10.2 9.65 -10.2 5.4 -9.8 5.05" fill="#3580af" fill-rule="evenodd" stroke="none"/>
    </g>
  </defs>
</svg>
